X:19
T:The Opening Door
M:4/4
L:1/8
R:Reel
C:Gris Sanderson
Q:450
N:A reel written for a friend who was scanning new horizons. 
N:This one is on the Spyka album.
K:Amix
e3a ecAc|B2BA GABG|A2 aA gAfA|e2ef edBd|
eAea ecAc|BcBA GABd|eA~A2 fAgA|1aged BABd:|2aged BAGE||
|:G,3G,3A,2-|A,2AA, GG,B,D|EDB,A,G,2G,A,-|A,B,DE GDEG|
G,3G,3A,2-|A,2AA, GA,FA,|E2EF EDB,D|1EDB,A, G,A,B,A,:|2EGAB dABd||
